X:1

T:Whistling Mike

M:C|

L:1/8
R:Hornpipe

S:O’Neill – Dance Music of Ireland: 1001 Gems (1907), No. 887

Z:AK/Fiddler’s Companion

K:G

(3DEF|GABc dBgf|efge dBGB|cedc BAGB|AGFE D2 (3DEF|

GABc dBgf|efge dBGB|cedc B>A (3GAB|A2G2G2:|

|:(3def|gdBd edBd|gdBd edBd|gfed cBAG|F>A (3GFE D2 (3DEF|

GABc dBgf|efge dBGB|cedc B>A (3GAB|A2G2G2:|

 

WHISTLING POSTMAN [1], THE. AKA and see “Connolly’s Reel.” Irish, Reel. D Major. Standard tuning. AAB. Sources for notated versions: flute player Colm O'Donnell (b. 1962, Aclare, County Sligo) [Flaherty]; set dance music recorded at Na Píobairí Uilleann in the 1980’s [Taylor]. Flaherty (Trip to Sligo), 1990; pg. 13. set dance music recorded at Na Píobairí Uilleann in the 1980’s [Taylor]. Miller (Fiddler’s Throne), 2004; No. 267, pg. 160. Taylor (Music for the Sets: Yellow Book), 1995; pg. 5.

See also listing at: 

Alan Ng’s Irishtune.info

